X:1
T:Charlie Hardie's
R: Reel
L:1/8
M:4/4
K:E
N: For the high part use the "a" on the pull (middle row)
|: g  eb   eg b  eg | f  BB/B/ Bd e  fa |  g/f/e b  eg b  e2 |  ab c'e e'e e' a  |
   g  eb   eg b  eg | f  BB/B/ Bd e  fa |  gb    ag fe dc    |1 BA GF  Ee  ef   :|2 BA GF Ee ec |]



